X:3
T:Sheet 3 — First-Inv Rounds
T:(Triads in 1st and 2nd inversions)
M:4/4
L:1/4
K:Eb
%%score {1 2}
V:1 clef=treble name="RH"
V:2 clef=bass name="LH"
[V:1] "^④ ¹"[EAc] "^⑤ ¹"[FBd] "^① ¹"[B,EG] "^⑥m ¹"[G,CE] |
[V:2] "_143"[E,A,C] "_243"[F,B,D] "_543"[B,,E,G,] "_343"[G,,C,E,] |
[V:1] "^②m ¹"[CFA] "^③m ¹"[DGB] "^⑦° ¹"[A,DF] "^① ²"[G,B,E] |
[V:2] "_643"[C,F,A,] "_743"[D,G,B,] "_443"[A,,D,F,] "_334"[G,,B,,E,] |
[V:1] "^②m ²"[A,CF] "^③m ²"[B,DG] "^④ ²"[CEA] "^⑤ ²"[DFB] |
[V:2] "_434"[A,,C,F,] "_534"[B,,D,G,] "_634"[C,E,A,] "_734"[D,F,B,] |
[V:1] "^⑥m ²"[EGc] "^⑦° ²"[FAd] z z |
[V:2] "_134"[E,G,C] "_234"[F,A,D] z z |

